X: 5
T: The Maids Of Mitchelstown
R: reel
M: 4/4
L: 1/8
K: Dmin
|:F3D E4|DFED CA,A,2|F3D E2EF|GAGE EDD2:||:C2AG G4|AG^FA G4|ECDA, C3C|B,CDE A,DD2:|


Tune 120	Setting 25787

